!!!!SEGMENT: pl-wru--50044-muz--020_buchner-philipp-friedrich--plectrum-musicum-sonata-xx.krn
!!!cenid: 16xx:1821
!!!COM: Buchner, Philipp Friedrich
!!!COM-rismID: pe30013776
!!!CDT:
!!!CNT:
!!!GTL: Plectrum musicum
!!!OTL: Sonata XX
!!!PDT: 1662
!!!AGN:
!!!SMS-siglum: PL-WRu
!!!SMS-shelfmark: 50044 Muz.
!!!SMS-shelfwork: 020 G
!!!SMS-variant:
!!!SMS-altvar:
!!!NIFC-rismSourceID: 990007465
!!!NIFC-rismChildID: 990007465
!!!NIFC-islandoraID: none
!!!URL-pdf-islandora:
!!!URL-scan: https://www.bibliotekacyfrowa.pl/dlibra/doccontent?id=116 @EN{Scan on Digital Library of University of Wroclaw} @PL{Skany w portalu Biblioteka Cyfrowa Uniwersytetu Wrocławskiego}
!!!ONB-nifc: UWAGA: Violino I: s. 17-18, Violino II: s. 31, Viola da braccio: s. 38, Fagotto: s. 62, Bassus: s. 76, Bassus continuus: s. 91
!!!AIN: 1 fagot 1 viola 2 violn
!!!key: a
**kern	**fba	**kern	**fba	**kern	**kern	**kern	**kern
*part6	*part6	*part5	*part5	*part4	*part3	*part2	*part1
*staff6	*	*staff5	*	*staff4	*staff3	*staff2	*staff1
*I"BASSUS CONTINUUS.	*	*I"BASSUS	*	*I"VIOLA DA BRACCIO.	*I"VIOLINO II.	*I"VIOLINO I.	*I"FAGOTTO
*I'bc	*	*I'b	*	*I'vla da braccio	*I'vl 2	*I'vl 1	*I'fag
*	*	*	*	*Iviola	*Ivioln	*Ivioln	*Ifagot
*ICklav	*	*ICstr	*	*ICstr	*ICstr	*ICstr	*ICww
*IGcont	*	*IGcont	*	*	*	*	*
*clefF4	*	*clefF4	*	*clefC3	*clefG2	*clefG2	*clefF4
*k[]	*	*k[]	*	*k[]	*k[]	*k[]	*k[]
*a:	*	*a:	*	*a:	*a:	*a:	*a:
*M3/2	*	*M3/2	*	*M3/2	*M3/2	*M3/2	*M3/2
=1!|:	=1!|:	=1!|:	=1!|:	=1!|:	=1!|:	=1!|:	=1!|:
!LO:TX:b:t=Adagio.	!	!LO:TX:b:t=Adagio.	!	!LO:TX:b:t=Adagio.	!LO:TX:b:t=Adagio.	!LO:TX:b:t=Adagio.	!LO:TX:b:t=Adagio.
1A	.	1A	.	2.a\	2cc\	2ee\	2.A\
.	.	.	.	.	4ee\	4cc\	.
.	.	.	.	4a\	4cc\	4ee\	4A\
2G\	5	2G\	5	2d\	2b/	4ff\	2G\
.	.	.	.	.	.	4gg\	.
=2-	=2-	=2-	=2-	=2-	=2-	=2-	=2-
2.F\	.	2.F\	.	4f\	2.cc\	2.aa\	2.F\
.	.	.	.	4c/	.	.	.
.	.	.	.	2.A/	.	.	.
4E\	.	4E\	.	.	4cc\	4gg\	4E\
!	!	!	!	!	!	!LO:TX:t=P:problem=kreska pseudotaktowa	!
2D/	6	2D/	6	.	2dd\	2ff\	2D/
!	!	!	!	!LO:TX:t=P:problem=kreska pseudotaktowa	!	!	!
.	.	.	.	4B/	.	.	.
=3-	=3-	=3-	=3-	=3-	=3-	=3-	=3-
1C	.	1C	.	1c	4g/	4ee\	2C/
.	.	.	.	.	4e/	4cc\	.
.	.	.	.	.	4g/	4ee\	2C/
.	.	.	.	.	4a/	4ff\	.
2BB/	6	2BB/	6	2d\	4b/	4gg\	2BB/
.	.	.	.	.	8a/	8ff\	.
.	.	.	.	.	8b/	8gg\	.
=4-	=4-	=4-	=4-	=4-	=4-	=4-	=4-
1AA	.	1AA	.	1e	4cc\	4aa\	1AA
.	.	.	.	.	4ee\	4a/	.
.	.	.	.	.	4a/	4cc\	.
.	.	.	.	.	4cc\	4a/	.
2GG/	6	2GG/	6	2e\	2b/	2.ee\	2GG/
=5-	=5-	=5-	=5-	=5-	=5-	=5-	=5-
1.FF	7	1.FF	7	2.f\	1a	.	1.FF
.	.	.	.	.	.	4ee\	.
*	*	*	*	*	*	*col	*
.	6	.	6	.	.	1dd	.
.	.	.	.	4g\	.	.	.
.	.	.	.	2a\	2a/	.	.
=6-	=6-	=6-	=6-	=6-	=6-	=6-	=6-
!LO:TX:t=P:problem=kreska pseudotaktowa	!	!LO:TX:t=P:problem=kreska pseudotaktowa	!	!LO:TX:t=P:problem=kreska pseudotaktowa	!	!	!
1.EE	#	1.EE	#	1.g#X	1.b	1.ee	1.EE
=7-	=7-	=7-	=7-	=7-	=7-	=7-	=7-
1AA	-	1AA	-	4r	0.r	1.r	4r
.	.	.	.	8c/	.	.	8AA/
.	.	.	.	8d\	.	.	8BB/
.	.	.	.	4e\	.	.	4C/
.	.	.	.	4c/	.	.	4AA/
2F\	.	2F\	.	4a\	.	.	4F\
.	.	.	.	8a\	.	.	8F\
!	!	!	!	!LO:TX:t=P:problem=kreska pseudotaktowa	!	!	!
.	.	.	.	8gny\	.	.	8E\
=8-	=8-	=8-	=8-	=8-	=8-	=8-	=8-
2D/	.	2D/	.	2f\	.	4r	2D/
.	.	.	.	.	.	8a/	.
.	.	.	.	.	.	8b/	.
2AA/	-	2AA/	-	2e\	.	4cc\	2AA/
.	.	.	.	.	.	4a/	.
2D/	.	2D/	.	4d\	.	4ff\	2D/
.	.	.	.	8d\	.	8ff\	.
!	!	!	!	!	!	!LO:TX:t=P:problem=kreska pseudotaktowa	!
.	.	.	.	8c/	.	8ee\	.
*	*	*	*	*	*	*custos:dd	*
!	!	!	!	!	!	!LO:LB:g=original	!
=9-	=9-	=9-	=9-	=9-	=9-	=9-	=9-
1G	.	1G	.	4B/	4r	2dd\	2.G\
.	.	.	.	8B/	8g/	.	.
.	.	.	.	8c/	8a/	.	.
.	.	.	.	4d\	4b/	4dd\	.
.	.	.	.	4B/	4g/	8dd\	4G\
.	.	.	.	.	.	8cc\	.
!LO:TX:t=P:problem=kreska pseudotaktowa	!	!LO:TX:t=P:problem=kreska pseudotaktowa	!	!	!	!	!
2GG/	.	2GG/	.	4d\	4gg\	4b/	2GG/
!	!	!	!	!	!	!LO:TX:t=P:problem=kreska pseudotaktowa	!
.	.	.	.	8B/	8gg\	4dd\	.
.	.	.	.	8A/	8ff\	.	.
*	*	*	*	*custos:G	*	*	*
!	!	!	!	!LO:LB:g=original	!	!	!
=10-	=10-	=10-	=10-	=10-	=10-	=10-	=10-
1C	.	1C	.	4G/	4ee\	2cc\	4C/
.	.	.	.	8e\	8gg\	.	8C/
.	.	.	.	8f\	8ff\	.	8D/
.	.	.	.	4g\	4ee\	2r	4E\
.	.	.	.	4e\	4gg\	.	4C/
2c\	.	2c\	.	4g\	4ee\	2r	4c\
!	!	!	!	!LO:TX:t=P:problem=kreska pseudotaktowa	!	!	!
.	.	.	.	4g\	8ee\	.	8c\
!	!	!	!	!	!	!	!LO:TX:t=P:problem=kreska pseudotaktowa
.	.	.	.	.	8dd\	.	8B\
*	*	*	*	*	*custos:cc	*	*
!	!	!	!	!	!LO:LB:g=original	!	!
=11-	=11-	=11-	=11-	=11-	=11-	=11-	=11-
2A\	.	2A\	.	2a\	2cc\	4r	2A\
.	.	.	.	.	.	8ee\	.
.	.	.	.	.	.	8ff\	.
2G\	6	2G\	6	2e\	2b/	4gg\	2G\
.	.	.	.	.	.	4ee\	.
4.F\	.	4.F\	.	4f\	4a/	4aa\	4F\
!	!	!	!	!	!LO:TX:t=P:problem=kreska pseudotaktowa	!	!
.	.	.	.	8f\	4cc\	8aa\	8F\
!	!	!	!	!	!	!LO:TX:t=P:problem=kreska pseudotaktowa	!
8E\	.	8E\	.	8g\	.	8gg\	8E\
*	*	*	*	*	*	*	*custos:D
!	!	!	!	!	!	!	!LO:LB:g=original
=12-	=12-	=12-	=12-	=12-	=12-	=12-	=12-
1D	-	1D	-	4a\	2dd\	4ff\	4D/
.	.	.	.	8a\	.	8ff\	8D/
.	.	.	.	8g\	.	8ee\	8E\
.	.	.	.	4f\	4r	4dd\	4F\
.	.	.	.	4f\	8dd\	4ff\	4D/
.	.	.	.	.	8cc\	.	.
2G\	.	2G\	.	2g\	4b/	2dd\	4G\
.	.	.	.	.	4b/	.	8G\
!	!	!	!	!	!	!	!LO:TX:t=P:problem=kreska pseudotaktowa
.	.	.	.	.	.	.	8F\
=13-	=13-	=13-	=13-	=13-	=13-	=13-	=13-
1C	.	1C	.	2g\	4cc\	2ee\	4E\
.	.	.	.	.	8e/	.	8E\
.	.	.	.	.	8f/	.	8D/
.	.	.	.	2r	4g/	2r	2C/
.	.	.	.	.	4e/	.	.
!	!	!	!	!LO:TX:t=P:problem=kreska pseudotaktowa	!	!	!
2AA/	.	2AA/	.	2r	4cc\	2r	2r
.	.	.	.	.	8cc\	.	.
!	!	!	!	!	!LO:TX:t=P:problem=kreska pseudotaktowa	!	!
.	.	.	.	.	8b/	.	.
=14-	=14-	=14-	=14-	=14-	=14-	=14-	=14-
2FF/	.	2FF/	.	4r	2a/	4r	1.r
.	.	.	.	8A/	.	8cc\	.
.	.	.	.	8B/	.	8dd\	.
2EE/	6	2EE/	6	4c/	2g/	4ee\	.
.	.	.	.	4e\	.	4cc\	.
2DD/	.	2DD/	.	2A/	4dd\	4ff\	.
.	.	.	.	.	8dd\	8ff\	.
!	!	!	!	!	!	!LO:TX:t=P:problem=kreska pseudotaktowa	!
.	.	.	.	.	8cc\	8ee\	.
*	*	*	*	*	*	*custos:dd	*
!	!	!	!	!	!	!LO:LB:g=original	!
=15-	=15-	=15-	=15-	=15-	=15-	=15-	=15-
1.GG	.	1.GG	.	4B/	4b/	4dd\	4r
.	.	.	.	8d\	4g/	8b/	8GG/
.	.	.	.	8c/	.	8cc\	8AA/
.	.	.	.	4B/	2gg\	4dd\	4BB/
.	.	.	.	4d\	.	4b/	4GG/
!	!	!	!	!	!LO:TX:t=P:problem=kreska pseudotaktowa	!	!
.	.	.	.	2d\	2r	4bb\	4G\
.	.	.	.	.	.	8bb\	8G\
.	.	.	.	.	.	8aa\	8F\
=16-	=16-	=16-	=16-	=16-	=16-	=16-	=16-
1C	.	1C	.	4e\	4r	2gg\	4E\
.	.	.	.	8g\	8e/	.	8C/
.	.	.	.	8f\	8f/	.	8D/
.	.	.	.	4e\	4g/	2r	4E\
.	.	.	.	4g\	4e/	.	4C/
!	!	!	!	!	!	!LO:TX:t=P:problem=kreska pseudotaktowa	!
2c\	.	2c\	.	4c/	4ee\	2r	4c\
.	.	.	.	8c/	8ee\	.	8c\
!	!	!	!	!	!	!	!LO:TX:t=P:problem=kreska pseudotaktowa
.	.	.	.	8d\	8dd\	.	8B\
*	*	*	*	*custos:e	*	*	*
!	!	!	!	!LO:LB:g=original	!	!	!
=17-	=17-	=17-	=17-	=17-	=17-	=17-	=17-
1A	.	1A	.	2e\	4cc\	4r	2A\
.	.	.	.	.	8cc\	8a/	.
.	.	.	.	.	8dd\	8b/	.
.	.	.	.	2r	4ee\	4cc\	2r
.	.	.	.	.	4cc\	4a/	.
2F\	.	2F\	.	2r	4ff\	4aa\	2r
.	.	.	.	.	8ff\	8aa\	.
.	.	.	.	.	8gg\	8gg\	.
*custos:D	*	*custos:D	*	*	*custos:aa	*	*
!LO:LB:g=original	!	!LO:LB:g=original	!	!	!LO:LB:g=original	!	!
=18-	=18-	=18-	=18-	=18-	=18-	=18-	=18-
1D	-	1D	-	4r	4aa\	2ff\	4r
.	.	.	.	8f\	8aa\	.	8D/
.	.	.	.	8g\	8gg\	.	8E\
.	.	.	.	4a\	4ff\	2a/	4F\
.	.	.	.	4f\	4aa\	.	4D/
!	!	!	!	!	!LO:TX:t=P:problem=kreska pseudotaktowa, między nutą a kropką	!	!
2G\	.	2G\	.	4d\	2.gg\	2b/	4G\
.	.	.	.	4d\	.	.	8G\
!	!	!	!	!	!	!	!LO:TX:t=P:problem=kreska pseudotaktowa
.	.	.	.	.	.	.	8F\
=19-	=19-	=19-	=19-	=19-	=19-	=19-	=19-
4E\	.	4E\	.	2.e\	.	2cc\	4E\
4D/	.	4D/	.	.	4ff\	.	4D/
2.C/	.	2.C/	.	.	2.ee\	2r	2.C/
.	.	.	.	4d\	.	.	.
!	!	!	!	!	!	!LO:TX:t=P:problem=kreska pseudotaktowa	!
.	.	.	.	4c/	.	2r	.
!LO:TX:t=P:problem=kreska pseudotaktowa	!	!LO:TX:t=P:problem=kreska pseudotaktowa	!	!	!	!	!
4BB/	.	4BB/	.	4g\	4dd\	.	4BB/
*	*	*	*	*	*	*	*custos:AA
!	!	!	!	!	!	!	!LO:LB:g=original
=20-	=20-	=20-	=20-	=20-	=20-	=20-	=20-
1AA	.	1AA	.	2a\	4cc\	4r	4AA/
.	.	.	.	.	8ee\	8cc\	8AA/
.	.	.	.	.	8dd\	8dd\	8BB/
.	.	.	.	2.e\	4cc\	4ee\	4C/
.	.	.	.	.	4ee\	4cc\	4AA/
!	!	!	!	!	!LO:TX:t=P:problem=kreska pseudotaktowa	!	!
2A\	.	2A\	.	.	2a/	4ccc\	4A\
.	.	.	.	4e\	.	8ccc\	8A\
!	!	!	!	!	!	!LO:TX:t=P:problem=kreska pseudotaktowa	!LO:TX:t=P:problem=kreska pseudotaktowa
.	.	.	.	.	.	8bb\	8G\
=21-	=21-	=21-	=21-	=21-	=21-	=21-	=21-
1F	.	1F	.	4f\	4r	2.aa\	1F
.	.	.	.	8f\	8a/	.	.
.	.	.	.	8g\	8b/	.	.
.	.	.	.	4a\	4cc\	.	.
.	.	.	.	4f\	4a/	4aa\	.
2D/	.	2D/	.	2a\	4dd\	2ff\	2D/
.	.	.	.	.	8dd\	.	.
!	!	!	!	!	!LO:TX:t=P:problem=kreska pseudotaktowa	!	!
.	.	.	.	.	8cc\	.	.
*	*	*	*	*	*	*custos:gg	*
!	!	!	!	!	!	!LO:LB:g=original	!
=22-	=22-	=22-	=22-	=22-	=22-	=22-	=22-
2E\	.	2E\	.	2g\	4b/	4gg\	2E\
.	.	.	.	.	8b/	8g/	.
.	.	.	.	.	8cc\	8a/	.
2D/	6	2D/	6	2f\	4dd\	4b/	2D/
.	.	.	.	.	4b/	4dd\	.
4.C/	.	4.C/	.	2e\	4ee\	4g/	4.C/
.	.	.	.	.	8ee\	4gg\	.
8BB/	.	8BB/	.	.	8dd\	.	8BB/
=23-	=23-	=23-	=23-	=23-	=23-	=23-	=23-
2AA/	.	2AA/	.	1.e	2cc\	2aa\	2AA/
*col	*	*col	*	*	*	*	*col
1EE	4	1EE	4	.	2.b/	2.aa\	1EE
.	#	.	#	.	4b/	4gg#X\	.
*Xcol	*	*Xcol	*	*	*	*	*Xcol
=24-	=24-	=24-	=24-	=24-	=24-	=24-	=24-
1.AA	.	1.AA	.	1.e	1.a	1.aa	1.AA
=25:|!	=25:|!	=25:|!	=25:|!	=25:|!	=25:|!	=25:|!	=25:|!
*M2/2	*	*M2/2	*	*M2/2	*M2/2	*M2/2	*M2/2
*met(C|)	*	*met(C|)	*	*met(C|)	*met(C|)	*met(C|)	*met(C|)
!LO:TX:b:t=allegro.	!	!LO:TX:b:t=allegro.	!	!	!LO:TX:b:t=allegro.	!	!LO:TX:b:t=allegro.
2A\	.	2A\	.	1r	8r	8r	1r
!	!	!	!	!	!	!LO:TX:b:t=allegro.	!
.	.	.	.	.	16cc\	16ee\	.
.	.	.	.	.	16b/	16dd\	.
*	*	*	*	*	*custos:a	*	*
!	!	!	!	!	!LO:LB:g=original	!	!
.	.	.	.	.	8.a/	8.cc\	.
.	.	.	.	.	32b/	32dd\	.
.	.	.	.	.	32cc\	32ee\	.
4F\	6	4F\	6	.	16dd\	16ff\	.
.	.	.	.	.	16ff\	16aa\	.
.	.	.	.	.	16dd\	16ff\	.
.	.	.	.	.	16cc\	16ee\	.
!LO:TX:t=P:problem=kreska pseudotaktowa	!	!LO:TX:t=P:problem=kreska pseudotaktowa	!	!	!	!	!
[<4G\	.	[<4G\	.	.	8.b/	8.dd\	.
!	!	!	!	!	!	!LO:TX:t=P:problem=kreska pseudotaktowa	!
.	.	.	.	.	16a/	16cc\	.
=26-	=26-	=26-	=26-	=26-	=26-	=26-	=26-
!	!	!	!	!LO:TX:b:t=allegro.	!	!	!
4G\]	.	4G\]	.	8r	4g/	4b/	8r
.	.	.	.	16B/	.	.	16G\
.	.	.	.	16A/	.	.	16F\
4E\	-	4E\	-	8.G/	4r	4r	8.E\
.	.	.	.	32A/	.	.	32F\
.	.	.	.	32B/	.	.	32G\
*	*	*	*	*custos:c	*	*	*
!	!	!	!	!LO:LB:g=original	!	!	!
!	!	!	!	!	!LO:TX:t=P:problem=kreska pseudotaktowa	!	!
4A\	.	4A\	.	16c/	2r	2r	16A\
.	.	.	.	16e\	.	.	16c\
.	.	.	.	16c/	.	.	16A\
.	.	.	.	16B/	.	.	16G\
4F\	.	4F\	.	8.A/	.	.	8.F\
!	!	!	!	!LO:TX:t=P:problem=kreska pseudotaktowa	!	!	!
.	.	.	.	16G/	.	.	16E\
*	*	*	*	*	*	*custos:ff	*
!	!	!	!	!	!	!LO:PB:g=original	!
=27-	=27-	=27-	=27-	=27-	=27-	=27-	=27-
4D/	.	4D/	.	4F/	8r	8r	4D/
.	.	.	.	.	16dd\	16ff\	.
.	.	.	.	.	16cc\	16ee\	.
4G\	.	4G\	.	4G/	8.b/	8.dd\	4r
.	.	.	.	.	32cc\	32ee\	.
.	.	.	.	.	32dd\	32ff\	.
!	!	!	!	!	!	!	!LO:TX:t=P:problem=kreska pseudotaktowa
8E\	.	8E\	.	8r	8ee\	4gg\	2r
*clefC3	*	*clefC3	*	*	*	*	*
8g\	.	8g\	.	16g\	16b/	.	.
.	.	.	.	16f\	16a/	.	.
!LO:TX:t=P:problem=kreska pseudotaktowa	!	!LO:TX:t=P:problem=kreska pseudotaktowa	!	!	!	!LO:TX:t=P:problem=kreska pseudotaktowa	!
4e\	.	4e\	.	8.e\	8.g/	4r	.
.	.	.	.	32f\	32a/	.	.
!	!	!	!	!LO:TX:t=P:problem=kreska pseudotaktowa	!LO:TX:t=P:problem=kreska pseudotaktowa	!	!
.	.	.	.	32g\	32b/	.	.
=28-	=28-	=28-	=28-	=28-	=28-	=28-	=28-
8a\	.	8a\	.	16a\	8.cc\	4r	8r
.	.	.	.	16cc\	.	.	.
*clefF4	*	*clefF4	*	*	*	*	*
8F\	.	8F\	.	16a\	.	.	16F\
.	.	.	.	16g\	32dd\	.	16E\
.	.	.	.	.	32ee\	.	.
4D/	-	4D/	-	8.f\	4ff\	8r	8.D/
.	.	.	.	.	.	16dd\	.
.	.	.	.	16e\	.	16cc\	32E\
.	.	.	.	.	.	.	32F\
*	*	*	*	*	*	*	*custos:G
!	!	!	!	!	!	!	!LO:LB:g=original
4G\	.	4G\	.	4d\	8r	8.b/	16G\
.	.	.	.	.	.	.	16B\
.	.	.	.	.	16b/	.	16G\
.	.	.	.	.	16a/	32cc\	16F\
.	.	.	.	.	.	32dd\	.
!	!	!	!	!LO:TX:t=P:problem=kreska pseudotaktowa	!	!	!
4E\	.	4E\	.	4r	8.g/	8ee\	8.E\
.	.	.	.	.	.	16gg\	.
!	!	!	!	!	!	!LO:TX:t=P:problem=kreska pseudotaktowa	!LO:TX:t=P:problem=kreska pseudotaktowa
.	.	.	.	.	32a/	16ff\	16D/
!	!	!	!	!	!LO:TX:t=P:problem=kreska pseudotaktowa	!	!
.	.	.	.	.	32b/	.	.
*custos:C	*	*custos:C	*	*	*	*	*
!LO:LB:g=original	!	!LO:LB:g=original	!	!	!	!	!
=29-	=29-	=29-	=29-	=29-	=29-	=29-	=29-
8C/	.	8C/	.	8r	4cc\	8.ee\	4C/
*clefC3	*	*clefC3	*	*	*	*	*
8c/	.	8c/	.	16c/	.	.	.
.	.	.	.	16B/	.	32ff\	.
.	.	.	.	.	.	32gg\	.
4A/	.	4A/	.	8.A/	16cc\	16aa\	4r
.	.	.	.	.	16ee\	16ccc\	.
.	.	.	.	.	16cc\	16aa\	.
.	.	.	.	32B/	16b/	16gg\	.
.	.	.	.	32c/	.	.	.
*	*	*	*	*	*custos:a	*	*
!	!	!	!	!	!LO:LB:g=original	!	!
4d\	.	4d\	.	16d\	8.a/	8.ff\	2r
.	.	.	.	16f\	.	.	.
.	.	.	.	16d\	.	.	.
.	.	.	.	16c/	32b/	16ee\	.
.	.	.	.	.	32cc\	.	.
!LO:TX:t=P:problem=kreska pseudotaktowa	!	!LO:TX:t=P:problem=kreska pseudotaktowa	!	!	!	!	!
4B/	.	4B/	.	8.B/	16dd\	8.dd\	.
.	.	.	.	.	16ff\	.	.
.	.	.	.	.	16dd\	.	.
!	!	!	!	!LO:TX:t=P:problem=kreska pseudotaktowa	!LO:TX:t=P:problem=kreska pseudotaktowa	!	!
.	.	.	.	16A/	16cc\	32ee\	.
!	!	!	!	!	!	!LO:TX:t=P:problem=kreska pseudotaktowa	!
.	.	.	.	.	.	32ff\	.
=30-	=30-	=30-	=30-	=30-	=30-	=30-	=30-
!	!	!	!	!	!	!	!LO:TX:t=P:problem=brak taktu nr 30
8G/	.	8G/	.	8G/	8.b/	4gg\	1ryy
8g\	.	8g\	.	16g\	.	.	.
.	.	.	.	16f\	16a/	.	.
4e\	.	4e\	.	8.e\	8.g/	8r	.
.	.	.	.	.	.	16gg\	.
.	.	.	.	32f\	32a/	16ff\	.
.	.	.	.	32g\	32b/	.	.
*	*	*	*	*custos:a	*	*	*
!	!	!	!	!LO:LB:g=original	!	!	!
4a\	.	4a\	.	16a\	16cc\	8.ee\	.
.	.	.	.	16cc\	16ee\	.	.
.	.	.	.	16a\	16cc\	.	.
.	.	.	.	16g\	16b/	32ff\	.
.	.	.	.	.	.	32gg\	.
!LO:TX:t=P:problem=kreska pseudotaktowa	!	!LO:TX:t=P:problem=kreska pseudotaktowa	!	!	!	!	!
4f\	.	4f\	.	8.f\	8.a/	16aa\	.
.	.	.	.	.	.	16ccc\	.
.	.	.	.	.	.	16aa\	.
!	!	!	!	!LO:TX:t=P:problem=kreska pseudotaktowa	!	!	!
.	.	.	.	16e\	32b/	16gg\	.
!	!	!	!	!	!LO:TX:t=P:problem=kreska pseudotaktowa	!	!
.	.	.	.	.	32cc\	.	.
*	*	*	*	*	*	*custos:ff	*
!	!	!	!	!	!	!LO:LB:g=original	!
=31-	=31-	=31-	=31-	=31-	=31-	=31-	=31-
8d\	.	8d\	.	8.d\	4dd\	8.ff\	8r
*clefF4	*	*clefF4	*	*	*	*	*
8D/	.	8D/	.	.	.	.	16D/
.	.	.	.	32e\	.	16ee\	16C/
.	.	.	.	32f\	.	.	.
4BB/	.	4BB/	.	4g\	4r	8dd\	8.BB/
.	.	.	.	.	.	16dd\	.
.	.	.	.	.	.	16cc\	32C/
.	.	.	.	.	.	.	32D/
4E\	.	4E\	.	8.G/	8r	8.b/	16E\
.	.	.	.	.	.	.	16G\
.	.	.	.	.	16gg\	.	16E\
.	.	.	.	32A/	16ff\	32cc\	16D/
.	.	.	.	32B/	.	32dd\	.
!LO:TX:t=P:problem=kreska pseudotaktowa	!	!LO:TX:t=P:problem=kreska pseudotaktowa	!	!LO:TX:t=P:problem=kreska pseudotaktowa	!	!	!
4C/	.	4C/	.	4c/	8.ee\	16ee\	8.C/
.	.	.	.	.	.	16gg\	.
.	.	.	.	.	.	16ee\	.
!	!	!	!	!	!	!LO:TX:t=P:problem=kreska pseudotaktowa	!LO:TX:t=P:problem=kreska pseudotaktowa
.	.	.	.	.	32ff\	16dd\	16BB/
!	!	!	!	!	!LO:TX:t=P:problem=kreska pseudotaktowa	!	!
.	.	.	.	.	32gg\	.	.
=32-	=32-	=32-	=32-	=32-	=32-	=32-	=32-
4AA/	.	4AA/	.	4.e\	8aa\	8cc\	4AA/
.	.	.	.	.	16cc\	16ee\	.
.	.	.	.	.	16b/	16dd\	.
8A\	.	8A\	.	.	8.a/	8.cc\	8r
8F\	.	8F\	.	32f\	.	.	16F\
.	.	.	.	32g\	.	.	.
.	.	.	.	8.a\	32b/	32dd\	16E\
.	.	.	.	.	32cc\	32ee\	.
4D/	.	4D/	.	.	16dd\	16ff\	8.D/
.	.	.	.	.	16ff\	16aa\	.
.	.	.	.	16g\	16dd\	16ff\	.
.	.	.	.	4f\	16cc\	16ee\	32E\
.	.	.	.	.	.	.	32F\
!LO:TX:t=P:problem=kreska pseudotaktowa	!	!LO:TX:t=P:problem=kreska pseudotaktowa	!	!	!	!	!LO:TX:t=P:problem=kreska pseudotaktowa
4G\	.	4G\	.	.	8.b/	8.dd\	4G\
!	!	!	!	!LO:N:vis=4	!	!LO:TX:t=P:problem=kreska pseudotaktowa	!
.	.	.	.	16r	16a/	16cc\	.
*	*	*	*	*	*custos:g	*	*
!	!	!	!	!	!LO:LB:g=original	!	!
=33-	=33-	=33-	=33-	=33-	=33-	=33-	=33-
8G\	.	8G\	.	8r	4g/	4b/	8r
8E\	.	8E\	.	16g\	.	.	16E\
.	.	.	.	16f\	.	.	16D/
4C/	.	4C/	.	8.e\	8r	8r	8.C/
.	.	.	.	.	16cc\	16ee\	.
.	.	.	.	32f\	16b/	16dd\	32D/
.	.	.	.	32g\	.	.	32E\
4F\	.	4F\	.	16a\	8.a/	8.cc\	16F\
.	.	.	.	16cc\	.	.	16A\
.	.	.	.	16a\	.	.	16F\
.	.	.	.	16g\	32b/	32dd\	16E\
.	.	.	.	.	32cc\	32ee\	.
!LO:TX:t=P:problem=kreska pseudotaktowa	!	!LO:TX:t=P:problem=kreska pseudotaktowa	!	!LO:TX:t=P:problem=kreska pseudotaktowa	!	!	!
4D/	.	4D/	.	4f\	16dd\	16ff\	8.D/
.	.	.	.	.	16ff\	16aa\	.
.	.	.	.	.	16dd\	16ff\	.
.	.	.	.	.	16cc\	16ee\	32E\
.	.	.	.	.	.	.	32F\
*	*	*	*	*	*	*custos:dd	*custos:G
!	!	!	!	!	!	!LO:LB:g=original	!LO:PB:g=original
=34-	=34-	=34-	=34-	=34-	=34-	=34-	=34-
4G\	.	4G\	.	4r	8.b/	8dd\	16G\
.	.	.	.	.	.	.	16B\
.	.	.	.	.	.	16bb\	16G\
.	.	.	.	.	32cc\	16aa\	16F\
.	.	.	.	.	32dd\	.	.
4E\	.	4E\	.	8r	4ee\	8.gg\	8.E\
.	.	.	.	16g\	.	.	.
.	.	.	.	16f\	.	32aa\	16D/
.	.	.	.	.	.	32bb\	.
4C/	.	4C/	.	16e\	8r	2ccc\	16C/
.	.	.	.	16g\	.	.	16E\
.	.	.	.	16e\	16ee\	.	16C/
.	.	.	.	16d\	16dd\	.	16BB/
!LO:TX:t=P:problem=kreska pseudotaktowa	!	!LO:TX:t=P:problem=kreska pseudotaktowa	!	!	!	!	!
[4AA/	.	[4AA/	.	4c/	8.cc\	.	2AA/
.	.	.	.	.	32dd\	.	.
.	.	.	.	.	32ee\	.	.
*	*	*	*	*custos:d	*	*	*
!	!	!	!	!LO:LB:g=original	!	!	!
=35-	=35-	=35-	=35-	=35-	=35-	=35-	=35-
4AA/]	6 4 2	4AA/]	6 4 2	4d\	4ff\	2bb\	.
4GG/	6	4GG/	6	4e\	2ee\	.	4GG/
2FF/	7	2FF/	7	4f\	.	2aa\	2FF/
.	6	.	6	4A/	4cc\	.	.
=36-	=36-	=36-	=36-	=36-	=36-	=36-	=36-
1EE	#	1EE	#	1B	1ee	1gg#X	1EE
*clefG2	*	*clefG2	*	*	*	*	*
*custos:aa	*	*custos:aa	*	*	*	*	*
!LO:LB:g=original	!	!LO:LB:g=original	!	!	!	!	!
=37!|:	=37!|:	=37!|:	=37!|:	=37!|:	=37!|:	=37!|:	=37!|:
*M6/4	*	*M6/4	*	*M6/4	*M6/4	*M6/4	*M6/4
2aa\	.	2aa\	.	0.r	1.r	2aa\	0.r
4gg\	.	4gg\	.	.	.	4gg\	.
4ff\	.	4ff\	.	.	.	4ff\	.
4ee\	.	4ee\	.	.	.	4ee\	.
!	!	!	!	!	!	!LO:TX:t=P:problem=kreska pseudotaktowa	!
4dd\	.	4dd\	.	.	.	4dd\	.
!LO:TX:t=P:problem=kreska pseudotaktowa	!	!LO:TX:t=P:problem=kreska pseudotaktowa	!	!	!	!	!
=38-	=38-	=38-	=38-	=38-	=38-	=38-	=38-
*^	*	*^	*	*	*	*	*
*tremolo	*	*	*tremolo	*	*	*	*	*	*
!LO:N:TREM=2	!LO:N:vis=2	!	!LO:N:TREM=2	!LO:N:vis=2	!	!	!	!	!
8ee/L	4cc\	.	8ee/L	4cc\	.	.	2ee\	4cc\	.
8ee/	.	.	8ee/	.	.	.	.	.	.
8ee/	4cc\	.	8ee/	4cc\	.	.	.	4cc\	.
8ee/	.	.	8ee/	.	.	.	.	.	.
8ee/	4dd\	.	8ee/	4dd\	.	.	4dd\	4dd\	.
8ee/J	.	.	8ee/J	.	.	.	.	.	.
8ee/L	4cc\	.	8ee/L	4cc\	.	.	4cc\	2ee\	.
8ee/	.	.	8ee/	.	.	.	.	.	.
8ee/	4b\	.	8ee/	4b\	.	.	4b/	.	.
8ee/J	.	.	8ee/J	.	.	.	.	.	.
!	!	!	!	!	!	!	!LO:TX:t=P:problem=kreska pseudotaktowa	!LO:TX:t=P:problem=kreska pseudotaktowa	!
16ff#/LL	4a\	.	16ff#/LL	4a\	.	.	4a/	4ff#X\	.
16ff#/	.	.	16ff#/	.	.	.	.	.	.
16ff#/	.	.	16ff#/	.	.	.	.	.	.
16ff#/JJ	.	.	16ff#/JJ	.	.	.	.	.	.
*Xtremolo	*	*	*Xtremolo	*	*	*	*	*	*
*v	*v	*	*v	*v	*	*	*	*	*
=39-	=39-	=39-	=39-	=39-	=39-	=39-	=39-
2g/	.	2g/	.	1.r	4g/	4gg\	0.r
.	.	.	.	.	4g/	4b/	.
4a/	.	4a/	.	.	4a/	4cc\	.
!LO:TX:t=P:problem=kreska pseudotaktowa	!	!LO:TX:t=P:problem=kreska pseudotaktowa	!	!	!	!	!
2.b/	.	2.b/	.	.	2b/	4dd\	.
.	.	.	.	.	.	8ee\	.
.	.	.	.	.	.	8ffny\	.
!	!	!	!	!	!LO:TX:t=P:problem=kreska pseudotaktowa	!LO:TX:t=P:problem=kreska pseudotaktowa	!
.	.	.	.	.	4b/	4gg\	.
*clefC3	*	*clefC3	*	*	*	*	*
=40-	=40-	=40-	=40-	=40-	=40-	=40-	=40-
2a\	.	2a\	.	2a\	2cc\	4ee\	.
.	.	.	.	.	.	4a/	.
4g\	6	4g\	6	4g\	4b/	4ee\	.
4f\	.	4f\	.	4f\	2a/	4ff\	.
4e\	.	4e\	.	4e\	.	4gg\	.
!	!	!	!	!LO:TX:t=P:problem=kreska pseudotaktowa	!	!	!
4d\	6	4d\	6	4d\	4b/	4ff\	.
*clefF4	*	*clefF4	*	*	*custos:cc	*custos:ee	*
!	!	!	!	!	!LO:LB:g=original	!LO:LB:g=original	!
=41-	=41-	=41-	=41-	=41-	=41-	=41-	=41-
2A\	.	2A\	.	4c/	4cc\	2ee\	2A\
.	.	.	.	4c/	4ee\	.	.
4G\	.	4G\	.	8d\	4b/	4r	4G\
.	.	.	.	8e\	.	.	.
4F\	.	4F\	.	4f\	2a/	2.r	4F\
4E\	.	4E\	.	4g\	.	.	4E\
!LO:TX:t=P:problem=kreska pseudotaktowa	!	!LO:TX:t=P:problem=kreska pseudotaktowa	!	!LO:TX:t=P:problem=kreska pseudotaktowa	!	!	!LO:TX:t=P:problem=kreska pseudotaktowa
4D/	6	4D/	6	4f\	4b/	.	4D/
=42-	=42-	=42-	=42-	=42-	=42-	=42-	=42-
2C/	.	2C/	.	4e\	2cc\	2ee\	4C/
.	.	.	.	4g\	.	.	4C/
4D/	.	4D/	.	4f\	4r	4dd\	4D/
!	!	!	!	!	!LO:TX:t=P:problem=kreska pseudotaktowa	!	!
2E\	6	2E\	6	4e\	2.r	4cc\	2E\
.	5	.	5	4d\	.	4b/	.
!LO:TX:t=P:problem=kreska pseudotaktowa	!	!LO:TX:t=P:problem=kreska pseudotaktowa	!	!LO:TX:t=P:problem=kreska pseudotaktowa	!	!	!LO:TX:t=P:problem=kreska pseudotaktowa
4F\	.	4F\	.	4c/	.	4a/	4F\
=43-	=43-	=43-	=43-	=43-	=43-	=43-	=43-
4G\	.	4G\	.	4.B/	2gg\	4.g/	4G\
4E\	.	4E\	.	.	.	.	4E\
.	.	.	.	8c/	.	8a/	.
4D/	6	4D/	6	4d\	4ff\	4b/	4D/
4C/	.	4C/	.	2e\	4ee\	2cc\	4C/
4BB/	.	4BB/	.	.	4dd\	.	4BB/
!	!	!	!	!LO:TX:t=P:problem=kreska pseudotaktowa	!LO:TX:t=P:problem=kreska pseudotaktowa	!LO:TX:t=P:problem=kreska pseudotaktowa	!
4AA/	6 #	4AA/	6 #	4f#X\	4cc\	4r	4AA/
*custos:GG	*	*custos:GG	*	*	*	*	*
!LO:LB:g=original	!	!LO:LB:g=original	!	!	!	!	!
=44-	=44-	=44-	=44-	=44-	=44-	=44-	=44-
2GG/	.	2GG/	.	4g\	4b/	2bb\	2GG/
.	.	.	.	4d\	4b/	.	.
4AA/	.	4AA/	.	4c/	4cc\	4aa\	4AA/
2BB/	6	2BB/	6	4B/	2dd\	4gg\	2BB/
.	5	.	5	4A/	.	4ff#X\	.
!	!	!	!	!	!	!LO:TX:t=P:problem=kreska pseudotaktowa	!
4C/	.	4C/	.	4G/	4ee\	4ee\	4C/
*	*	*	*	*custos:c	*	*	*
!	!	!	!	!LO:LB:g=original	!	!	!
=45-	=45-	=45-	=45-	=45-	=45-	=45-	=45-
4AA/	6 5	4AA/	6 5	4c/	2ee\	2.ff#X\	4AA/
2BB/	4	2BB/	4	2B/	.	.	2BB/
.	#	.	#	.	4dd#X\	.	.
!	!	!	!	!LO:TX:t=P:problem=kreska pseudotaktowa	!LO:TX:t=P:problem=kreska pseudotaktowa	!LO:TX:t=P:problem=kreska pseudotaktowa	!
2.EE/	.	2.EE/	.	2.B/	2.ee\	2.ee\	2.EE/
*clefC3	*	*clefC3	*	*	*	*	*custos:E
!	!	!	!	!	!	!	!LO:LB:g=original
=46-	=46-	=46-	=46-	=46-	=46-	=46-	=46-
2c/	.	2c/	.	4c/	2ee\	2gg\	0.r
.	.	.	.	4c/	.	.	.
4d\	.	4d\	.	4d\	4ddny\	4ffny\	.
4e\	6	4e\	6	4e\	4cc\	4ee\	.
8f\	.	8f\	.	8fny\	4b/	4dd\	.
8g\	.	8g\	.	8g\	.	.	.
!LO:TX:t=P:problem=kreska pseudotaktowa	!	!LO:TX:t=P:problem=kreska pseudotaktowa	!	!	!	!LO:TX:t=P:problem=kreska pseudotaktowa	!
4a\	.	4a\	.	4a\	4a/	4cc\	.
=47-	=47-	=47-	=47-	=47-	=47-	=47-	=47-
2g\	.	2g\	.	2g\	4b/	4dd\	.
.	.	.	.	.	4cc\	4ee\	.
4f\	6	4f\	6	4f\	4dd\	4ff\	.
!	!	!	!	!	!LO:TX:t=P:problem=kreska pseudotaktowa	!	!
4e\	.	4e\	.	4e\	2.ee\	2.gg\	.
4d\	.	4d\	.	4d\	.	.	.
!	!	!	!	!LO:TX:t=P:problem=kreska pseudotaktowa	!	!	!
4c/	.	4c/	.	4c/	.	.	.
*clefF4	*	*clefF4	*	*	*	*	*
=48-	=48-	=48-	=48-	=48-	=48-	=48-	=48-
2E\	5	2E\	5	4B/	2gg\	1.r	2E\
.	6	.	6	4c/	.	.	.
4D/	6	4D/	6	4d\	4ff\	.	4D/
4C/	.	4C/	.	2.e\	4ee\	.	4C/
4BB/	.	4BB/	.	.	4dd\	.	4BB/
4AA/	.	4AA/	.	.	4cc\	.	4AA/
=49-	=49-	=49-	=49-	=49-	=49-	=49-	=49-
2.GG/	6	2.GG/	6	2.e\	2.b/	2ee\	2.GG/
.	5	.	5	.	.	4dd\	.
!LO:TX:t=P:problem=kreska pseudotaktowa	!	!LO:TX:t=P:problem=kreska pseudotaktowa	!	!LO:TX:t=P:problem=kreska pseudotaktowa	!LO:TX:t=P:problem=kreska pseudotaktowa	!	!
2.AA/	.	2.AA/	.	2.e\	2.cc\	4cc\	2.AA/
.	.	.	.	.	.	4b/	.
.	.	.	.	.	.	4a/	.
*	*	*	*	*	*custos:ee	*custos:g	*
!	!	!	!	!	!LO:LB:g=original	!LO:LB:g=original	!
=50-	=50-	=50-	=50-	=50-	=50-	=50-	=50-
2.E\	#	2.E\	#	4e\	2ee\	2.g#X/	2.E\
.	.	.	.	4c/	.	.	.
.	.	.	.	4B/	4dd\	.	.
4F\	.	4F\	.	4A/	4cc\	4a/	4F\
4G\	.	4G\	.	2e\	4b/	4b/	4G\
4A\	.	4A\	.	.	4a/	4cc\	4A\
=51-	=51-	=51-	=51-	=51-	=51-	=51-	=51-
2.E\	.	2.E\	.	2.e\	2a/	2.b/	2.E\
.	.	.	.	.	4g#X/	.	.
2.AA/	.	2.AA/	.	2.e\	2.a/	2.a/	2.AA/
=52:|!	=52:|!	=52:|!	=52:|!	=52:|!	=52:|!	=52:|!	=52:|!
0AA;	.	0AA;	.	0e;<	0a;	0a;	0AA;
==	==	==	==	==	==	==	==
*-	*-	*-	*-	*-	*-	*-	*-
!!!system-decoration: [ww][(str)]<klav>
!!!RDF**kern: < = below
!!!ENC: Filip Voros
!!!END: 2022-11-13
!!!ENC: Andrzej Kubiczek
!!!END: 2022-12-02
!!!YEC: Copyright 2022 Narodowy Instytut Fryderyka Chopina (https://polishscores.org)
!!!YEM: License CC-BY-4.0 (https://creativecommons.org/licenses/by/4.0)
